adaptive-icons/Test-Icons--V5/action/bug-filled-12.svg

<svg height="12" viewBox="0 0 12 12" width="12" xmlns="http://www.w3.org/2000/svg"><g fill="none" fill-rule="evenodd"><path d="m6 2.394c-1.538 0-2.788 1.202-2.788 2.74v3.077a2.79 2.79 0 0 0 2.788 2.789 2.79 2.79 0 0 0 2.789-2.789v-3.029a2.79 2.79 0 0 0 -2.789-2.787zm2.105 4.635c0 .551-.448 1-1 1h-.528a1.001 1.001 0 0 1 0 2h-1.154a1.001 1.001 0 0 1 0-2h-.529a1.001 1.001 0 0 1 0-2 1.001 1.001 0 0 1 0-2h2.212a1.001 1.001 0 0 1 0 2c.551 0 1 .449 1 1z" fill="#282d37" fill-rule="nonzero"/><g stroke="#282d37" stroke-linecap="round" stroke-linejoin="round"><path d="m7.49 2.779c.77-.481 1.156-1.106 1.25-1.779m-5.48 0c.096.673.529 1.25 1.25 1.779m4.279 2.404a2.79 2.79 0 0 0 -2.789-2.79c-1.538 0-2.788 1.202-2.788 2.74v3.077a2.79 2.79 0 0 0 2.788 2.79 2.79 2.79 0 0 0 2.789-2.789v-3.029zm2.211 4.422-.529-.577h-1.805m2.334-3.422-.529-.577h-1.682m-5.577 0h-1.684l-.528.577m10 2-.529-.577h-1.682m-5.455 2h-1.806l-.528.575m2.212-2.574h-1.684l-.528.576" stroke-width="1.25"/><path d="m5.423 10.029a1.001 1.001 0 0 1 0-2h1.154a1.001 1.001 0 0 1 0 2zm1.683-2a1.001 1.001 0 0 0 0-2h-2.213a1.001 1.001 0 0 0 0 2h2.212zm0-2a1.001 1.001 0 0 0 0-2h-2.213a1.001 1.001 0 0 0 0 2h2.212z"/></g></g></svg>

<svg xmlns="http://www.w3.org/2000/svg" id="3" width="12" height="12" viewBox="0 0 12 12"><g fill="none" fill-rule="evenodd" class="page-1"><g class="bug"><path fill="#282D37" fill-rule="nonzero" d="M6 2.394c-1.538 0-2.788 1.202-2.788 2.74v3.077A2.79 2.79 0 0 0 6 11a2.79 2.79 0 0 0 2.789-2.789V5.182A2.79 2.79 0 0 0 6 2.395Zm2.105 4.635c0 .551-.448 1-1 1h-.528a1.001 1.001 0 0 1 0 2H5.423a1.001 1.001 0 0 1 0-2h-.529a1.001 1.001 0 0 1 0-2 1.001 1.001 0 0 1 0-2h2.212a1.001 1.001 0 0 1 0 2c.551 0 1 .449 1 1Z" class="fill"/><path stroke="#282D37" stroke-linecap="round" stroke-linejoin="round" stroke-width="1.25" d="M7.49 2.779C8.26 2.298 8.646 1.673 8.74 1M3.26 1c.096.673.529 1.25 1.25 1.779m4.279 2.404A2.79 2.79 0 0 0 6 2.393c-1.538 0-2.788 1.202-2.788 2.74V8.21A2.79 2.79 0 0 0 6 11a2.79 2.79 0 0 0 2.789-2.789V5.182ZM11 9.605l-.529-.577H8.666M11 5.606l-.529-.577H8.789m-5.577 0H1.528L1 5.606m10 2-.529-.577H8.789m-5.455 2H1.528L1 9.604M3.212 7.03H1.528L1 7.606" class="stroke"/><path stroke="#282D37" stroke-linecap="round" stroke-linejoin="round" d="M5.423 10.029a1.001 1.001 0 0 1 0-2h1.154a1.001 1.001 0 0 1 0 2H5.423Zm1.683-2a1.001 1.001 0 0 0 0-2H4.893a1.001 1.001 0 0 0 0 2h2.212Zm0-2a1.001 1.001 0 0 0 0-2H4.893a1.001 1.001 0 0 0 0 2h2.212Z" class="cutout"/></g></g></svg>
